X:1
T:James Gibb editions
T:Come, Holy Ghost - Attwood
T:#
%%score [ ( 1 2 ) ( 3 4 ) ] { ( 5 7 ) | ( 6 8 ) }
L:1/8
Q:1/4=180
M:3/2
K:F
V:1 treble nm="Soprano Alto" snm="S A"
V:2 treble 
V:3 treble nm="Tenor Bass" snm="T B"
V:4 treble 
V:5 treble nm="Organ" snm="Org."
V:7 treble 
V:6 bass 
V:8 bass 
V:1
"^larghetto""^Come, Holy Ghost""^Thomas Attwood\n(1765-1838)"!p! c4 f4 (e2 d2) | c8 A4 | F4 G8 | %3
w: Come, Ho- ly *|Ghost our|souls in-|
 A8 A4 |"^cresc." (G4 c4) d4 | e4 g8 |[M:3/2] (c2 d2 e4) (e2 d2) | c12 |!p! c4 A4 B4 | G8 G4 | %10
w: spire, and|ligh\- * ten|with ce-|le\- * * stial *|fire.|Thou the a-|noin- ting|
 (c4 A4) d4 | G12 | G4 B4 A4 | (G4"^cresc." B4) A4 | G8 G4 | (A4 G8) |!p! c4 c4 c4 | (c4 f4) A4 | %18
w: Spi\- * rit|art,|Who dost thy|se\- * v'n~fold|gifts im-|part. *|Thy ble- ssed|un\- * ction|
 (G4 d4) c4 |"^cresc." (B4 A4) A4 | (B4 c4) d4 | (c4 E4) F4 | B8 G4 | (G4 A4)!f! c4 | (f4 e4) d4 | %25
w: from * a-|bove, * is|com\- * fort,|life * and|fire of|love, * is|com\- * fort,|
 (c4 E4) F4 | B8 G4 | F12 || z12 | z12 | z12 | z8 ||!mp! c4 | (c4 f4) (e2 d2) | c8 A4 | F8 G4 | %36
w: life, * and|fire of|love.|||||E-|na\- * ble *|with per-|pe- tual|
 A8 A4 | (G4 c4) d4 | e4 g8 | (c2 d2 e4) (e2 d2) | c8!p! c4 | (c4 A4) B4 | G8 G4 | (c4 A4) d4 | %44
w: light, the|dull\- * ness|of our|blin\- * * ded *|sight; A-|noint * and|cheer our|soi\- * led|
 G12 |"^cresc." G4 B4 A4 | (G4 B4) A4 | G4 G8 | G12 |!p! c4 c4 c4 | (c4 f4) A4 | (G4 d4) c4 | %52
w: face|with the a-|bun\- * dance|of thy|grace.|Keep far our|foes * give|peace * at|
 (B4 A4) A4 |"^cresc." (B4 c4) d4 | (c4 E4) F4 | B8 G4 | (G4 A4)!f! c4 | (f4 e4) d4 | (c4 E4) F4 | %59
w: home, * where|thou * art|guide * no|ill can|come; * Where|thou * art|guide * no|
 B8 G4 | F12 ||[M:3/2] z12 | z12 | z12 | z12 |[M:3/2]!mp! c4 f4 (e2 d2) | c8 A4 | F8 G4 | A8 A4 | %69
w: ill can|come.|||||Teach us to *|know the|Fa- ther,|Son, and|
 (G4 c4) d4 | e8 g4 | (c2 d2 e4) (e2 d2) | c8!p! c4 | (c4 A4) B4 | G8 G4 | (c4 A4) d4 | G8 (G4- | %77
w: thee * of|both to|be * * but *|one, that|through * the|a- ges|all * a-|long, this|
 G4 B4) A4 | (G4 B4) A4 | G8 G4 | G12 |!f! c8 c4 | (c4 f4) A4 | (G4 d4) c4 | B4 A8 | %85
w: * * may|be * our|end- less|song;|Praise to|thy * e-|ter\- * nal|me- rit,|
!p! (B4 c4) d4 | (c4 E4) F4 | B8 G4 | (G4 A4) c4 |!f! (f4 e4) d4 | (c4 E4) F4 | B8 G4 | G4 F4 z4 | %93
w: Fa\- * ther,|Son * and|Ho- ly|Spi- * rit,|Fa- * ther,|Son * and|Ho- ly|Spi- rit.|
 z12 | z12 | z12 | z12 | z12 |[M:3/2] z12 | z12 | z12 | z12 | z12 |] %103
w: ||||||||||
V:2
 x12 | x12 | x12 | x12 | x12 | x12 |[M:3/2] x12 | x12 | x12 | x12 | x12 | x12 | x12 | x12 | x12 | %15
 x12 | x12 | x12 | x12 | x12 | x12 | x12 | x12 | x12 | x12 | x12 | x12 | x12 || x12 | x12 | x12 | %31
 x8 || F4 | F8 F4 | F8 E4 | F8 E4 | F8 F4 | (E4 G4) G4 | G4 G8 | (E2 ^F2 G4) =F4 | E8 E4 | F8 F4 | %42
 (F4 E4) E4 | F8 F4 | E12 | D4 G4 ^F4 | (G4 D4) C4 | =B,4 F8 | E12 | G4 A4 G4 | (G4 F4) F4 | %51
 (F4 E4) E4 | F8 F4 | (F4 _E4) D4 | (E4 C4) C4 | G8 E4 | (E4 F4) G4 | A8 F4 | E8 D4 | G8 E4 | %60
 x2 x2 x2 x2 x2 x2 ||[M:3/2] x12 | x12 | x12 | x12 |[M:3/2] F4 F4 F4 | F8 E4 | F8 E4 | F8 F4 | %69
 (E4 G4) G4 | G8 G4 | (E2 ^F2 G4) =F4 | E8 E4 | F8 F4 | (F4 E4) E4 | F8 F4 | E8 (E4 | D4 G4) ^F4 | %78
 (G4 D4) C4 | (=B,4 F4) F4 | E12 | (G4 A4) G4 | (G4 F4) F4 | (F4 E4) E4 | F4 F8 | (F4 _E4) D4 | %86
 (E4 C4) C4 | G8 E4 | (E4 F4) G4 | A8 F4 | E8 D4 | G8 E4 | E4 F4 z4 | z12 | z12 | z12 | z12 | z12 | %98
[M:3/2] x12 | x12 | x12 | x12 | x12 |] %103
V:3
[K:C] z12 | z12 | z12 | z12 | z12 | z12 |[M:3/2] z12 | z12 | z12 | z12 | z12 | z12 | z12 | z12 | %14
[M:3/2] z12 | z12 | z12 | z12 | z12 | z12 | z12 |[M:3/2] z12 | z12 | z12 | z12 | z12 | z12 | z12 || %28
[K:F][M:3/2][K:bass] z12 | z12 | z12 | z8 || A,4 | A,8 B,4 | A,8 C4 | D8 C4 | C8 C4 | %37
"^cresc""^cresc." C8 =B,4 | C4 C8 | C8 =B,4 | C8!p! C4 | (A,4 C4) B,4 | C8 C4 | (C4 D4) D4 | C12 | %45
 B,4 D4 C4 | (B,4 G,4) ^F,4 | G,4 =B,8 |!p! C12 | !courtesy!_B,4 B,4 B,4 | A,8 A,4 | B,8 G,4 | %52
 F,8 C4 | F,8 F,4 | G,8 F,4 | D8 C4 | C8!f! C4 | (A,2 D2 C4) B,4 | (G,4 B,4) A,4 | D8 B,4 | A,12 || %61
[M:3/2] z12 | z12 | z12 | z12 |[M:3/2] A,4 A,4 B,4 | A,8 C4 | D8 C4 | C8 C4 |"^cresc." C8 =B,4 | %70
 C8 C4 | C8 =B,4 | C8 C4 | (A,4 C4) !courtesy!_B,4 | C8 C4 | (C4 D4) D4 | C8 (C4 | B,4 D4) C4 | %78
 (B,4 G,4) ^F,4 | (G,4 =B,4) B,4 | C12 | x8 B,4 | A,8 A,4 | B,8 G,4 | F,4 (F,4 C4) | F,8 F,4 | %86
 G,8 F,4 | D8 C4 | C8 C4 | (A,2 D2 C4) B,4 | (G,4 B,4) A,4 | D8 B,4 | B,4 A,4 z4 | z12 | z12 | %95
 z12 | z12 | z12 |[M:3/2] z12 | z12 | z12 | z12 | z12 |] %103
V:4
[K:C] x12 | x12 | x12 | x12 | x12 | x12 |[M:3/2] x12 | x12 | x12 | x12 | x12 | x12 | x12 | x12 | %14
[M:3/2] x12 | x12 | x12 | x12 | x12 | x12 | x12 |[M:3/2] x12 | x12 | x12 | x12 | x12 | x12 | x12 || %28
[K:F][M:3/2][K:bass] x12 | x12 | x12 | x8 || F,4 | F,8 F,4 | F,8 A,4 | D8 C4 | F,8 F,4 | %37
 (C,4 E,4) G,4 | C4 E,8 | (A,4 G,4) G,4 | C,8 C,4 | (A,4 F,4) D,4 | C,8 B,4 | (A,4 D4) B,4 | C12 | %45
 G,4 D,4 D,4 | (_E,4 B,,4) D,4 | G,,4 (D,4 G,,4) | C,12 | C,4 C,4 C,4 | C,8 C,4 | C,8 C,4 | %52
 D,8 _E,4 | (D,4 C,4) B,,4 | B,,8 A,,4 | G,,8 C,4 | F,8 E,4 | D,4 A,,4 B,,4 | (C,4 ^C,4) D,4 | %59
 B,,8 C,4 | F,12 ||[M:3/2] x12 | x12 | x12 | x12 |[M:3/2] F,4 F,4 F,4 | F,8 A,4 | D8 C4 | F,8 F,4 | %69
 (C,4 E,4) G,4 | C8 E,4 | (A,4 G,4) G,4 | C,8 C,4 | (A,4 F,4) D,4 | C,8 B,4 | (A,4 D4) B,4 | %76
 C8 (C4 | G,4 D,4) D,4 | (_E,4 B,,4) D,4 | (G,,4 D,4) G,,4 | C,12 | C,8 C,4 | C,8 C,4 | C,8 C,4 | %84
 D,8 _E,4 | (D,4 C,4) B,,4 | B,,8 A,,4 | G,,8 C,4 | F,8 E,4 | (D,4 A,,4) B,,4 | (C,4 ^C,4) D,4 | %91
 B,,8 !courtesy!=C,4 | C,4 F,4 z4 | z12 | z12 | z12 | z12 | z12 |[M:3/2] x12 | x12 | x12 | x12 | %102
 x12 |] %103
V:5
!p! [FAc]8 [FB]4 | [FA]8 [CEA]4 | F4 [FG]4- [EG]4 | [CFA]8 [FA]4 | [EG]4 [Gc]4 [Gd]4 | %5
 [Ge]4 [Gg]8 |[M:3/2] [Ec]2 [^Fd]2 [Ge]4 [=Fe]2- [Fd]2 | [Ec]12 |!p! [CFc]4- [CFA]4 [B,FB]4 | %9
 [FG]4- [EG]4 [CEG]4 | [CFc]4 [FA]4- [Fd]4 | [EG]12 | [B,DG]4 [DGB]4 [C^FA]4 | [B,G]4 [DB]4 [CA]4 | %14
 [=B,G]4- [B,FG]8 | [FA]4 [EG]8 |!p! [Gc]4- [Ac]4 [Gc]4 | [Gc]4 [Ff]4 [FA]4- | [FG]4 [Ed]4- [Ec]4 | %19
 [FB]4- [FA]4 [FA]4 | [FB]4 [_Ec]4 [Dd]4 | [Ec]4 [CE]4- [CF]4 | [B,DGB]8 [EG]4 | %23
 [EG]4 [FA]4!f! [Gc]4 | [A-d-f]4 [Ace]4 [FBd]4 | [EGc]4 [G,B,E]4 [F,A,F]4 | [DGB]8 [B,CEG]4- | %27
 [A,CF]12 ||!mp! (F8 ^C4 | D8) [CF]4- | [DFG]8 [CEG]4 | [A,CF]8 || x4 | x12 | x12 | x12 | x12 | %37
[M:3/2] z12 | z12 | z12 | z12 | z12 | z12 | z12 | z12 |[M:3/2] z12 | z12 | z12 | z12 | z12 | z12 | %51
 z12 | z12 |[M:3/2] z12 | z12 | z12 | z12 | z12 | z12 | z12 | z12 ||[M:3/2] (F8 ^C4 | D8) (F4 | %63
 G8) G3 F | [CF]12 |[M:3/2] z12 | z12 | z12 | z12 | z12 | z12 | z12 | z12 |[M:3/2] z12 | z12 | %75
 z12 | z12 | z12 | z12 | z12 | z12 | z12 |[M:3/2] z12 | z12 | z12 | z12 | z12 | z12 | z12 | z12 | %90
 z12 |[M:3/2] z12 | z8!mf! F4 | F12- | F8 [B,F]2 [A,D^F]2 | G12- | G8 G2 [FA]2 | B4 A4 B4 | %98
 G4 [CF]4 [=B,F]4 | [CF]2 [B,EG]2 [CFA]4 [B,E]4 |!pp! F12- | F12 | [A,F]12 |] %103
V:6
 [F,A,C]8- [F,B,D]4 | [F,C]8 A,4 | D4 C8 | F,8 [F,C]4 |"^cresc." [C,C]4 [E,C]4 [G,=B,]4 | %5
 C4 [E,C]8 |[M:3/2] [A,C]4 [G,C]4 [G,=B,]4 | [C,G,C]12 | A,4 F,4 D,4 | [C,C]8 B,4 | A,4 D4 B,4 | %11
 C12 | G,4 D,8 | _E,4"^cresc." [B,,G,]4 [D,^F,]4 | [G,,G,]4 D,4 G,,4 | [C,C]12 | %16
 [C,!courtesy!_B,]12 | [C,A,]12 | [C,B,]8- [C,G,]4 |"^cresc." [D,F,]8 [_E,F,C]4 | %20
 [D,F,B,]4- [C,F,A,]4 [B,,F,B,]4 | [B,,G,]8 [A,,F,]4 | G,,8 [C,C]4 | [F,C]8 [E,C]4 | %24
 [D,D]4 [A,,A,]4 [B,,B,]4 | [C,C]4 [^C,,^C,]4 [D,,D,]4 | G,,8 C,4 | [F,,F,]12 ||"^Diap." F,8 ^C,4 | %29
 D,8 A,,4 | B,,4 G,,4 C,4 | F,,8 || x4 | x12 | x12 | x12 | x12 |[M:3/2] x12 | x12 | x12 | x12 | %41
 x12 | x12 | x12 | x12 |[M:3/2] x12 | x12 | x12 | x12 | x12 | x12 | x12 | x12 |[M:3/2] x12 | x12 | %55
 x12 | x12 | x12 | x12 | x12 | x12 ||[M:3/2] F,8 ^C,4 | D,8 A,,4 | x8 C2 B,2 | [F,,A,]12 | %65
[M:3/2] x12 | x12 | x12 | x12 | x12 | x12 | x12 | x12 |[M:3/2] x12 | x12 | x12 | x12 | x12 | x12 | %79
 x12 | x12 | x12 |[M:3/2] x12 | x12 | x12 | x12 | x12 | x12 | x12 | x12 | x12 |[M:3/2] z12 | %92
 z8 F,4 | C4 A,4 C4- | C4 B,2 A,2 x4 | G,12 | [E,G,]8 E,2 _E,2 | !courtesy!_B,4 C4 B,4 | %98
 B,4 x4 _A,4 | !courtesy!=A,2 G,2 F,4 G,4 | F,12 | A,,4 C,4 D,4 | x12 |] %103
V:7
 x12 | x12 | x12 | x12 | x12 | x12 |[M:3/2] x12 | x12 | x12 | x12 | x12 | x12 | x12 | x12 | x12 | %15
 x12 | x12 | x12 | x12 | x12 | x12 | x12 | x12 | x12 | x12 | x12 | x12 | x12 || x2 x2 x2 x2 x2 x2 | %29
 x2 x2 x2 x2 x2 x2 | x8 C2 B,2 | x2 x2 x2 x2 || x4 | x12 | x12 | x12 | x12 |[M:3/2] x12 | x12 | %39
 x12 | x12 | x12 | x12 | x12 | x12 |[M:3/2] x12 | x12 | x12 | x12 | x12 | x12 | x12 | x12 | %53
[M:3/2] x12 | x12 | x12 | x12 | x12 | x12 | x12 | x12 ||[M:3/2] x2 x2 x2 x2 x2 x2 | %62
 x2 x2 x2 x2 x2 x2 | F4 E2 D2 E4 | x8 x4 |[M:3/2] x12 | x12 | x12 | x12 | x12 | x12 | x12 | x12 | %73
[M:3/2] x12 | x12 | x12 | x12 | x12 | x12 | x12 | x12 | x12 |[M:3/2] x12 | x12 | x12 | x12 | x12 | %87
 x12 | x12 | x12 | x12 |[M:3/2] x12 | x12 | x12 | x12 | D4 =B,4 D4- | D4 C2 =B,2 C4 | F12 | %98
 D2 E2 x4 x4 | x12 | A,4 C4 D4 | C4 A,4 B,4 | x12 |] %103
V:8
 x12 | x12 | x12 | x12 | x12 | x12 |[M:3/2] x12 | x12 | x12 | x12 | x12 | x12 | x12 | x12 | x12 | %15
 x12 | x12 | x12 | x12 | x12 | x12 | x12 | x12 | x12 | x12 | x12 | x12 | x12 || x12 | x12 | x12 | %31
 x8 || x4 | x12 | x12 | x12 | x12 |[M:3/2] x12 | x12 | x12 | x12 | x12 | x12 | x12 | x12 | %45
[M:3/2] x12 | x12 | x12 | x12 | x12 | x12 | x12 | x12 |[M:3/2] x12 | x12 | x12 | x12 | x12 | x12 | %59
 x12 | x12 ||[M:3/2] x2 x2 x2 x2 x2 x2 | x2 x2 x2 x2 x2 x2 | B,,4 G,,4 C,4 | x2 x2 x2 x2 x2 x2 | %65
[M:3/2] x12 | x12 | x12 | x12 | x12 | x12 | x12 | x12 |[M:3/2] x12 | x12 | x12 | x12 | x12 | x12 | %79
 x12 | x12 | x12 |[M:3/2] x12 | x12 | x12 | x12 | x12 | x12 | x12 | x12 | x12 |[M:3/2] x12 | x12 | %93
 A,,4 C,4 _E,4 | [D,F,]8 [D,F,]2 C,2 | =B,,4 D,4 F,4 | x12 | D,4 C,4 D,4 | B,,4 A,,4 D,4 | %99
 C,8 C,4 | F,,4 A,,4 B,,4 | F,,12 | [F,,C,]12 |] %103

